X: 28020
T: Moving Home
R: barndance
M: 4/4
K: Cmajor
cd|:e2ce dcA2|(3GAB (3cde f2 gf|e2ce dcA2|(3GAB cd cGcd|
e2ce dcA2|(3GAB (3cde f2gf|e2ce dcA2|1 (3GAB cd cGcd:|2 (3GAB cd cGcB||
|:A2F2- FG (3ABc|d4- d4|e4- eg (3fed|e2 (3eee e2 cB|A2F2- FG (3ABc|
d3e fgac'|1 ac'gc' fedf|e2cB cdcB:|2 ac'gc' fc'eg|fgag fedf||

